src/images/icon/icon_visible.svg

<svg height="20" viewBox="0 0 20 20" width="20" xmlns="http://www.w3.org/2000/svg"><g fill="none" fill-rule="evenodd"><path d="m10 4c4.9705627 0 9 4.6862915 9 6s-4.0294373 6-9 6c-4.97056275 0-9-4.6862915-9-6s4.02943725-6 9-6zm0 1.5c-2.48528137 0-4.5 2.01471863-4.5 4.5 0 2.4852814 2.01471863 4.5 4.5 4.5 2.4852814 0 4.5-2.0147186 4.5-4.5 0-2.48528137-2.0147186-4.5-4.5-4.5z" fill="#b6c2cd"/><circle cx="10" cy="10" fill="#36435c" r="3"/></g></svg>

<?xml version="1.0" encoding="UTF-8"?>
<svg width="20px" height="20px" viewBox="0 0 20 20" version="1.1" xmlns="http://www.w3.org/2000/svg" xmlns:xlink="http://www.w3.org/1999/xlink">
    
    <g id="Dashboard" stroke="none" stroke-width="1" fill="none" fill-rule="evenodd">
        <g id="00-Menu-交互备份" transform="translate(-579.000000, -299.000000)">
            <g id="编组-8" transform="translate(579.000000, 299.000000)">
                <path d="M10,4 C14.9705627,4 19,8.6862915 19,10 C19,11.3137085 14.9705627,16 10,16 C5.02943725,16 1,11.3137085 1,10 C1,8.6862915 5.02943725,4 10,4 Z M10,5.5 C7.51471863,5.5 5.5,7.51471863 5.5,10 C5.5,12.4852814 7.51471863,14.5 10,14.5 C12.4852814,14.5 14.5,12.4852814 14.5,10 C14.5,7.51471863 12.4852814,5.5 10,5.5 Z" id="形状结合" fill="#B6C2CD"></path>
                <circle id="椭圆形" fill="#36435C" cx="10" cy="10" r="3"></circle>
            </g>
        </g>
    </g>
</svg>
